; generated by PrusaSlicer 2.6.0+win64 on 2023-07-29 at 16:17:31 UTC


;
;
; 

; external perimeters extrusion width = 0.25mm
; perimeters extrusion width = 0.25mm
; infill extrusion width = 0.25mm
; solid infill extrusion width = 0.25mm
; top infill extrusion width = 0.25mm
; first layer extrusion width = 0.30mm

M73 P0 R75
M73 Q0 S76
M201 X1000 Y1000 Z200 E5000 ; sets maximum accelerations, mm/sec^2
M203 X200 Y200 Z12 E120 ; sets maximum feedrates, mm / sec
M204 S1250 T1250 ; sets acceleration (S) and retract acceleration (R), mm/sec^2
M205 X8.00 Y8.00 Z0.40 E4.50 ; sets the jerk limits, mm/sec
M205 S0 T0 ; sets the minimum extruding and travel feed rate, mm/sec
;TYPE:Custom
M862.3 P "MK3S" ; printer model check
M862.1 P0.25 ; nozzle diameter check
M115 U3.12.2 ; tell printer latest fw version
G90 ; use absolute coordinates
M83 ; extruder relative mode
M104 S205 ; set extruder temp
M140 S60 ; set bed temp
M190 S60 ; wait for bed temp
M109 S205 ; wait for extruder temp
G28 W ; home all without mesh bed level
G80 ; mesh bed leveling
G1 Z0.2 F720
G1 Y-3 F1000 ; go outside print area
G92 E0
G1 X60 E8 F700 ; intro line
G1 X100 E12.5 F700 ; intro line
G92 E0
M221 S100

; Don't change E value below. Excessive value can damage the printer.
M907 E430 ; set extruder motor current
G21 ; set units to millimeters
G90 ; use absolute coordinates
M83 ; use relative distances for extrusion
M900 K0.05 ; Filament gcode LA 1.5
M900 K30 ; Filament gcode LA 1.0
M107
;LAYER_CHANGE
;Z:0.2
;HEIGHT:0.2
;BEFORE_LAYER_CHANGE
G92 E0.0
;0.2


M73 Q0 S75
G1 E-.8 F2100
G1 Z.15 F720
G1 Z.2
;AFTER_LAYER_CHANGE
;0.2
G1 Z.35
G1 X97.561 Y116.861 F10800
G1 Z.2 F720
G1 E.8 F2100
M204 S800
;TYPE:Skirt/Brim
;WIDTH:0.3
G1 F1200
G1 X98.623 Y116.326 E.02542
G1 X99.35 Y116.229 E.01568
G1 X121.75 Y116.229 E.47883
G1 X122.477 Y116.326 E.01568
G1 X123.47 Y116.807 E.02359
G1 X124.044 Y117.376 E.01728
G1 X124.526 Y118.271 E.02173
G1 X124.752 Y119.349 E.02354
G1 X124.761 Y134.529 E.32449
G1 X124.634 Y135.368 E.01814
G1 X124.361 Y136.116 E.01702
G1 X124.044 Y136.624 E.0128
G1 X123.508 Y137.164 E.01626
G1 X122.477 Y137.674 E.02459
G1 X121.75 Y137.771 E.01568
G1 X99.35 Y137.771 E.47883
G1 X98.623 Y137.674 E.01568
G1 X97.63 Y137.193 E.02359
G1 X97.062 Y136.631 E.01708
G1 X96.574 Y135.728 E.02194
G1 X96.408 Y135.097 E.01395
G1 X96.333 Y134.395 E.01509
G1 X96.333 Y119.61 E.31605
G1 X96.463 Y118.643 E.02086
G1 X96.739 Y117.884 E.01726
G1 X97.049 Y117.385 E.01256
G1 X97.534 Y116.888 E.01484
M204 S1000
G1 X97.719 Y117.064 F10800
M204 S800
G1 F1200
G1 X98.687 Y116.575 E.02318
G1 X99.35 Y116.486 E.0143
G1 X121.75 Y116.486 E.47883
G1 X122.413 Y116.575 E.0143
G1 X123.314 Y117.011 E.0214
G1 X123.838 Y117.53 E.01577
G1 X124.285 Y118.361 E.02017
G1 X124.495 Y119.368 E.02199
G1 X124.504 Y134.51 E.32368
G1 X124.385 Y135.304 E.01716
G1 X124.132 Y135.998 E.01579
G1 X123.838 Y136.47 E.01189
G1 X123.352 Y136.96 E.01475
G1 X122.414 Y137.425 E.02238
G1 X121.75 Y137.514 E.01432
G1 X99.35 Y137.514 E.47883
G1 X98.687 Y137.425 E.0143
G1 X97.786 Y136.989 E.0214
G1 X97.267 Y136.476 E.0156
G1 X96.815 Y135.639 E.02033
G1 X96.59 Y134.389 E.02715
G1 X96.587 Y119.74 E.31314
G1 X96.66 Y118.953 E.0169
G1 X96.845 Y118.28 E.01492
G1 X97.221 Y117.586 E.01687
G1 X97.693 Y117.091 E.01462
M204 S1000
G1 X97.877 Y117.266 F10800
M204 S800
G1 F1200
G1 X98.75 Y116.824 E.02092
G1 X99.35 Y116.743 E.01294
G1 X121.75 Y116.743 E.47883
G1 X122.35 Y116.824 E.01294
G1 X123.158 Y117.216 E.0192
G1 X123.633 Y117.685 E.01427
G1 X124.044 Y118.45 E.01856
G1 X124.248 Y119.509 E.02305
G1 X124.248 Y134.491 E.32026
G1 X124.136 Y135.239 E.01617
G1 X123.904 Y135.881 E.01459
G1 X123.633 Y136.315 E.01094
G1 X123.196 Y136.755 E.01326
G1 X122.35 Y137.176 E.0202
G1 X121.75 Y137.257 E.01294
G1 X99.35 Y137.257 E.47883
G1 X98.75 Y137.176 E.01294
G1 X97.942 Y136.784 E.0192
G1 X97.472 Y136.321 E.0141
G1 X97.056 Y135.55 E.01873
G1 X96.847 Y134.382 E.02536
G1 X96.844 Y119.746 E.31286
G1 X96.912 Y119.002 E.01597
G1 X97.086 Y118.369 E.01403
G1 X97.427 Y117.739 E.01531
G1 X97.851 Y117.294 E.01314
M204 S1000
; printing object Test-HanBok-v0.5.stl id:0 copy 0
;WIPE_START
G1 F8640
G1 X98.75 Y116.824 E-.23424
G1 X99.35 Y116.743 E-.1398
G1 X101.195 Y116.743 E-.42596
;WIPE_END
G1 Z.35 F720
G1 X117.345 Y124.253 F10800
G1 Z.2 F720
G1 E.8 F2100
M204 S800
;TYPE:Perimeter
;WIDTH:0.299999
G1 F1200
G1 X117.46 Y124.236 E.00248
G1 X117.73 Y124.072 E.00675
G1 X117.835 Y123.931 E.00376
G1 X117.914 Y123.621 E.00684
G1 X117.914 Y122.649 E.02078
G1 X118.027 Y122.786 E.0038
G1 X118.344 Y123.063 E.009
G1 X118.597 Y123.212 E.00628
G1 X119.115 Y123.41 E.01185
G1 X119.431 Y123.453 E.00682
G1 X119.958 Y123.435 E.01127
G1 X120.371 Y123.323 E.00915
G1 X120.75 Y123.134 E.00905
G1 X121.086 Y122.873 E.00909
G1 X121.1 Y123.754 E.01883
G1 X121.177 Y123.952 E.00454
G1 X121.336 Y124.042 E.00391
G1 X121.336 Y130.145 E.13046
G1 X121.196 Y130.219 E.00339
G1 X121.088 Y130.524 E.00692
G1 X121.086 Y131.033 E.01088
G1 X120.739 Y130.764 E.00939
G1 X120.289 Y130.548 E.01067
G1 X119.873 Y130.453 E.00912
G1 X119.451 Y130.441 E.00902
G1 X119.033 Y130.511 E.00906
G1 X118.635 Y130.662 E.0091
G1 X118.276 Y130.888 E.00907
G1 X117.914 Y131.244 E.01085
G1 X117.914 Y130.695 E.01174
G1 X117.868 Y130.34 E.00765
G1 X117.721 Y130.119 E.00567
G1 X117.46 Y129.964 E.00649
G1 X117.271 Y129.936 E.00408
G1 X103.829 Y129.936 E.28734
G1 X103.64 Y129.964 E.00408
G1 X103.365 Y130.133 E.0069
G1 X103.221 Y130.368 E.00589
G1 X103.186 Y130.579 E.00457
G1 X103.186 Y131.133 E.01184
G1 X102.783 Y130.794 E.01126
G1 X102.289 Y130.548 E.0118
G1 X101.873 Y130.453 E.00912
G1 X101.451 Y130.441 E.00902
G1 X100.911 Y130.548 E.01177
G1 X100.417 Y130.794 E.0118
G1 X100.014 Y131.133 E.01126
G1 X100.008 Y130.49 E.01375
G1 X99.914 Y130.234 E.00583
G1 X99.764 Y130.146 E.00372
G1 X99.764 Y124.045 E.13042
G1 X99.944 Y123.913 E.00477
G1 X100.014 Y123.621 E.00642
G1 X100.014 Y122.867 E.01612
G1 X100.179 Y123.032 E.00499
G1 X100.524 Y123.278 E.00906
G1 X100.911 Y123.452 E.00907
G1 X101.327 Y123.547 E.00912
G1 X101.749 Y123.559 E.00902
G1 X102.167 Y123.489 E.00906
G1 X102.565 Y123.338 E.0091
G1 X102.924 Y123.112 E.00907
G1 X103.186 Y122.867 E.00767
G1 X103.191 Y123.701 E.01783
G1 X103.287 Y123.968 E.00607
G1 X103.521 Y124.186 E.00684
G1 X103.829 Y124.264 E.00679
G1 X117.308 Y124.259 E.28813
M204 S1000
G1 X117.308 Y124.002 F10800
M204 S800
G1 F1200
G1 X117.385 Y123.99 E.00167
G1 X117.586 Y123.845 E.0053
G1 X117.657 Y123.621 E.00502
G1 X117.657 Y122.413 E.02582
;WIDTH:0.33423
G1 X117.674 Y122.041 E.00902
;WIDTH:0.36846
G1 X117.691 Y121.67 E.01005
G1 X117.71 Y121.718 E.0014
;WIDTH:0.3542
G1 X117.852 Y122.023 E.00871
;WIDTH:0.3271
G1 X117.993 Y122.329 E.00796
;WIDTH:0.299999
G1 X118.278 Y122.675 E.00958
G1 X118.718 Y122.986 E.01152
G1 X119.19 Y123.164 E.01078
G1 X119.455 Y123.197 E.00571
G1 X119.934 Y123.179 E.01025
G1 X120.296 Y123.077 E.00804
G1 X120.629 Y122.907 E.00799
G1 X120.922 Y122.675 E.00799
G1 X121.165 Y122.392 E.00797
G1 X121.343 Y122.075 E.00777
G1 X121.343 Y123.621 E.03305
G1 X121.378 Y123.781 E.0035
G1 X121.593 Y123.93 E.00559
G1 X121.593 Y130.265 E.13542
G1 X121.409 Y130.363 E.00446
G1 X121.343 Y130.579 E.00483
G1 X121.343 Y131.837 E.02689
G1 X121.098 Y131.419 E.01036
G1 X120.839 Y131.15 E.00798
G1 X120.596 Y130.978 E.00636
G1 X120.19 Y130.785 E.00961
G1 X119.824 Y130.705 E.00801
G1 X119.451 Y130.698 E.00797
G1 X119.083 Y130.763 E.00799
G1 X118.734 Y130.9 E.00801
G1 X118.516 Y131.037 E.0055
G1 X118.15 Y131.361 E.01045
G1 X117.9 Y131.734 E.0096
;WIDTH:0.348588
G1 X117.681 Y132.372 E.01714
G1 X117.657 Y132.073 E.00762
;WIDTH:0.299999
G1 X117.657 Y131.157 E.01958
G1 X117.629 Y130.435 E.01545
G1 X117.505 Y130.272 E.00438
G1 X117.271 Y130.193 E.00528
G1 X103.829 Y130.193 E.28734
G1 X103.61 Y130.261 E.0049
G1 X103.503 Y130.372 E.0033
G1 X103.443 Y130.579 E.00461
G1 X103.44 Y132.083 E.03215
G1 X103.3 Y131.734 E.00804
G1 X103.05 Y131.361 E.0096
G1 X102.64 Y131.007 E.01158
G1 X102.19 Y130.785 E.01073
G1 X101.824 Y130.705 E.00801
G1 X101.451 Y130.698 E.00797
G1 X101.01 Y130.785 E.00961
G1 X100.56 Y131.007 E.01073
G1 X100.15 Y131.361 E.01158
G1 X99.936 Y131.667 E.00798
G1 X99.76 Y132.083 E.00966
G1 X99.757 Y130.579 E.03215
G1 X99.697 Y130.372 E.00461
G1 X99.507 Y130.266 E.00465
G1 X99.507 Y123.931 E.13542
G1 X99.7 Y123.824 E.00472
G1 X99.757 Y123.621 E.00451
G1 X99.76 Y121.917 E.03643
G1 X99.9 Y122.266 E.00804
G1 X100.102 Y122.581 E.008
G1 X100.361 Y122.85 E.00798
G1 X100.667 Y123.064 E.00798
G1 X101.01 Y123.215 E.00801
G1 X101.376 Y123.295 E.00801
G1 X101.749 Y123.302 E.00797
G1 X102.117 Y123.237 E.00799
G1 X102.466 Y123.1 E.00801
G1 X102.781 Y122.898 E.008
G1 X103.05 Y122.639 E.00798
G1 X103.264 Y122.333 E.00798
G1 X103.44 Y121.917 E.00966
G1 X103.443 Y123.551 E.03493
G1 X103.487 Y123.8 E.00541
G1 X103.644 Y123.96 E.00479
G1 X103.829 Y124.007 E.00408
G1 X117.271 Y124.007 E.28734
M204 S1000
;WIPE_START
G1 F8640
G1 X117.385 Y123.99 E-.02661
G1 X117.586 Y123.845 E-.05723
G1 X117.657 Y123.621 E-.05426
G1 X117.657 Y122.413 E-.27893
G1 X117.674 Y122.041 E-.08599
G1 X117.691 Y121.67 E-.08575
G1 X117.71 Y121.718 E-.01192
G1 X117.852 Y122.023 E-.07768
G1 X117.993 Y122.329 E-.0778
G1 X118.114 Y122.476 E-.04383
;WIPE_END
G1 Z.35 F720
G1 X121.375 Y120.71 F10800
G1 Z.2 F720
G1 E.8 F2100
M204 S800
;WIDTH:0.235244
G1 F1200
G1 X121.346 Y120.614 E.0016
G1 X121.095 Y120.175 E.00809
G1 X121.375 Y120.175 E.00448
G1 X121.375 Y120.673 E.00796
M204 S1000
;WIPE_START
G1 F8640
G1 X121.346 Y120.614 E-.01518
G1 X121.095 Y120.175 E-.11677
G1 X121.375 Y120.175 E-.06465
G1 X121.375 Y120.673 E-.11499
;WIPE_END
G1 E-.48841 F2100
G1 Z.35 F720
G1 X117.689 Y120.963 F10800
G1 Z.2 F720
G1 E.8 F2100
M204 S800
;WIDTH:0.364038
G1 F1200
G1 X117.68 Y120.879 E.00226
;WIDTH:0.345744
G1 X117.662 Y120.212 E.0168
;WIDTH:0.310191
G1 X118.026 Y120.212 E.00809
G1 X117.914 Y120.409 E.00504
;WIDTH:0.337115
G1 X117.801 Y120.686 E.00732
;WIDTH:0.364038
G1 X117.703 Y120.928 E.00697
M204 S1000
;WIPE_START
G1 F8640
G1 X117.68 Y120.879 E-.0125
G1 X117.662 Y120.212 E-.15407
G1 X118.026 Y120.212 E-.08405
G1 X117.914 Y120.409 E-.05233
G1 X117.801 Y120.686 E-.06908
G1 X117.703 Y120.928 E-.06029
;WIPE_END
G1 E-.36768 F2100
G1 Z.35 F720
G1 X117.681 Y132.82 F10800
G1 Z.2 F720
G1 E.8 F2100
M204 S800
;WIDTH:0.347
G1 F1200
G1 X117.749 Y133.12 E.00778
;WIDTH:0.329032
G1 X117.886 Y133.472 E.00899
G1 X118.083 Y133.778 E.00866
G1 X117.672 Y133.778 E.00978
G1 X117.672 Y133.515 E.00626
;WIDTH:0.347
G1 X117.68 Y132.857 E.01664
M204 S1000
;WIPE_START
G1 F8640
G1 X117.749 Y133.12 E-.06278
G1 X117.886 Y133.472 E-.08722
G1 X118.083 Y133.778 E-.08403
G1 X117.672 Y133.778 E-.0949
G1 X117.672 Y133.515 E-.06073
G1 X117.68 Y132.857 E-.15195
;WIPE_END
G1 E-.25839 F2100
G1 Z.35 F720
G1 X121.363 Y133.261 F10800
G1 Z.2 F720
G1 E.8 F2100
M204 S800
;WIDTH:0.259413
G1 F1200
G1 X121.363 Y133.813 E.00994
G1 X121.046 Y133.813 E.00571
G1 X121.165 Y133.645 E.00371
G1 X121.346 Y133.295 E.00709
M204 S1000
;WIPE_START
G1 F8640
G1 X121.363 Y133.813 E-.11967
G1 X121.046 Y133.813 E-.0732
G1 X121.165 Y133.645 E-.04754
G1 X121.346 Y133.295 E-.09098
;WIPE_END
G1 E-.46861 F2100
G1 Z.35 F720
G1 X103.446 Y133.057 F10800
G1 Z.2 F720
G1 E.8 F2100
M204 S800
;WIDTH:0.294222
G1 F1200
G1 X103.446 Y133.796 E.01544
G1 X103.082 Y133.796 E.00761
G1 X103.262 Y133.531 E.00669
G1 X103.432 Y133.092 E.00984
M204 S1000
;WIPE_START
G1 F8640
G1 X103.446 Y133.796 E-.16259
G1 X103.082 Y133.796 E-.08405
G1 X103.262 Y133.531 E-.07397
G1 X103.432 Y133.092 E-.1087
;WIPE_END
G1 E-.37069 F2100
G1 Z.35 F720
G1 X100.104 Y133.78 F10800
G1 Z.2 F720
G1 E.8 F2100
M204 S800
;WIDTH:0.294223
G1 F1200
G1 X99.754 Y133.796 E.00732
G1 X99.754 Y133.057 E.01544
G1 X99.903 Y133.465 E.00908
G1 X100.084 Y133.748 E.00702
M204 S1000
;WIPE_START
G1 F8640
G1 X99.754 Y133.796 E-.077
G1 X99.754 Y133.057 E-.17064
G1 X99.903 Y133.465 E-.10029
G1 X100.084 Y133.748 E-.07757
;WIPE_END
G1 E-.3745 F2100
G1 Z.35 F720
G1 X103.469 Y121.181 F10800
G1 Z.2 F720
G1 E.8 F2100
M204 S800
G1 F1200
G1 X103.434 Y120.884 E.00625
G1 X103.297 Y120.535 E.00783
G1 X103.096 Y120.22 E.00781
G1 X103.446 Y120.204 E.00732
G1 X103.468 Y121.144 E.01965
M204 S1000
;WIPE_START
G1 F8640
G1 X103.434 Y120.884 E-.06055
G1 X103.297 Y120.535 E-.08657
G1 X103.096 Y120.22 E-.08628
G1 X103.446 Y120.204 E-.0809
G1 X103.468 Y121.144 E-.21711
;WIPE_END
G1 E-.26859 F2100
G1 Z.35 F720
G1 X99.731 Y121.181 F10800
G1 Z.2 F720
G1 E.8 F2100
M204 S800
G1 F1200
G1 X99.754 Y120.883 E.00625
G1 X99.754 Y120.204 E.01419
G1 X100.118 Y120.204 E.00761
G1 X99.984 Y120.4 E.00496
G1 X99.788 Y120.811 E.00951
G1 X99.737 Y121.144 E.00704
M204 S1000
;WIPE_START
G1 F8640
G1 X99.754 Y120.883 E-.06039
G1 X99.754 Y120.204 E-.15678
G1 X100.118 Y120.204 E-.08405
G1 X99.984 Y120.4 E-.05482
G1 X99.788 Y120.811 E-.10514
G1 X99.737 Y121.144 E-.07779
;WIPE_END
G1 E-.26103 F2100
G1 Z.35 F720
G1 X117.271 Y123.75 F10800
G1 Z.2 F720
G1 E.8 F2100
M204 S800
;TYPE:External perimeter
;WIDTH:0.299999
G1 F1200
G1 X117.336 Y123.732 E.00144
G1 X117.4 Y123.621 E.00274
G1 X117.4 Y119.95 E.07847
G1 X118.652 Y119.95 E.02676
G1 X118.441 Y120.124 E.00585
G1 X118.145 Y120.532 E.01077
G1 X117.982 Y120.965 E.00989
G1 X117.948 Y121.288 E.00694
G1 X117.977 Y121.609 E.00689
G1 X118.069 Y121.921 E.00695
G1 X118.22 Y122.208 E.00693
G1 X118.424 Y122.459 E.00691
G1 X118.671 Y122.666 E.00689
G1 X118.979 Y122.831 E.00747
G1 X119.48 Y122.941 E.01096
G1 X119.909 Y122.923 E.00918
G1 X120.221 Y122.831 E.00695
G1 X120.508 Y122.68 E.00693
G1 X120.759 Y122.476 E.00691
G1 X120.98 Y122.208 E.00743
;WIDTH:0.326097
G1 X121.112 Y121.925 E.00735
;WIDTH:0.352194
G1 X121.243 Y121.642 E.00802
G1 X121.274 Y121.314 E.00847
;WIDTH:0.346099
G1 X121.24 Y120.959 E.00899
;WIDTH:0.344753
G1 X120.996 Y120.422 E.0148
;WIDTH:0.299999
G1 X120.776 Y120.141 E.00763
G1 X120.548 Y119.95 E.00636
G1 X121.6 Y119.95 E.02249
G1 X121.6 Y120.609 E.01409
;WIDTH:0.346099
G1 X121.577 Y121.329 E.01816
G1 X121.6 Y121.991 E.0167
;WIDTH:0.299999
G1 X121.603 Y123.648 E.03542
G1 X121.729 Y123.75 E.00347
G1 X121.85 Y123.75 E.00259
G1 X121.85 Y123.871 E.00259
G1 X121.85 Y130.45 E.14063
G1 X121.729 Y130.45 E.00259
G1 X121.622 Y130.507 E.00259
G1 X121.6 Y130.579 E.00161
G1 X121.6 Y131.725 E.0245
;WIDTH:0.348962
G1 X121.576 Y132.451 E.01848
G1 X121.6 Y133.108 E.01673
;WIDTH:0.299999
G1 X121.6 Y134.05 E.02014
G1 X120.391 Y134.05 E.02584
G1 X120.638 Y133.884 E.00636
G1 X120.869 Y133.658 E.00691
G1 X121.063 Y133.367 E.00748
;WIDTH:0.349939
G1 X121.267 Y132.779 E.01589
;WIDTH:0.351882
G1 X121.268 Y132.421 E.0092
G1 X121.165 Y132.127 E.008
;WIDTH:0.325941
G1 X121.063 Y131.833 E.00732
;WIDTH:0.299999
G1 X120.884 Y131.562 E.00694
G1 X120.658 Y131.331 E.00691
G1 X120.453 Y131.191 E.00531
G1 X120.092 Y131.023 E.00851
G1 X119.774 Y130.957 E.00694
G1 X119.451 Y130.955 E.0069
G1 X119.108 Y131.023 E.00747
G1 X118.659 Y131.251 E.01076
G1 X118.331 Y131.542 E.00937
G1 X118.149 Y131.81 E.00692
G1 X118.023 Y132.108 E.00692
G1 X117.957 Y132.426 E.00694
G1 X117.955 Y132.749 E.0069
G1 X118.015 Y133.067 E.00692
G1 X118.137 Y133.367 E.00692
G1 X118.316 Y133.638 E.00694
G1 X118.542 Y133.869 E.00691
G1 X118.809 Y134.05 E.0069
G1 X117.4 Y134.05 E.03012
G1 X117.4 Y131.157 E.06184
G1 X117.378 Y130.506 E.01392
G1 X117.271 Y130.45 E.00258
G1 X103.829 Y130.45 E.28734
G1 X103.756 Y130.473 E.00164
G1 X103.7 Y130.579 E.00256
G1 X103.7 Y134.05 E.0742
G1 X102.391 Y134.05 E.02798
G1 X102.638 Y133.884 E.00636
G1 X102.869 Y133.658 E.00691
G1 X103.005 Y133.459 E.00515
G1 X103.177 Y133.092 E.00866
G1 X103.243 Y132.774 E.00694
G1 X103.245 Y132.451 E.0069
G1 X103.185 Y132.133 E.00692
G1 X103.063 Y131.833 E.00692
G1 X102.869 Y131.542 E.00748
G1 X102.497 Y131.221 E.0105
G1 X102.092 Y131.023 E.00964
G1 X101.774 Y130.957 E.00694
G1 X101.451 Y130.955 E.0069
G1 X101.133 Y131.015 E.00692
G1 X100.703 Y131.221 E.01019
G1 X100.331 Y131.542 E.0105
G1 X100.149 Y131.81 E.00692
G1 X100.023 Y132.108 E.00692
G1 X99.957 Y132.426 E.00694
G1 X99.955 Y132.749 E.0069
G1 X100.015 Y133.067 E.00692
G1 X100.137 Y133.368 E.00694
G1 X100.316 Y133.638 E.00692
G1 X100.542 Y133.869 E.00691
